;FLAVOR:Marlin
;TIME:17794
;Filament used: 16.5445m
;Layer height: 0.25
;MINX:15.67
;MINY:3.189
;MINZ:0.51
;MAXX:156.713
;MAXY:153.664
;MAXZ:11.36
;Generated with Cura_SteamEngine 4.13.10
M82 ;absolute extrusion mode
;This G-Code has been generated specifically for the LulzBot Mini 2 | SE

;SETTINGS
;Nozzle diameter = 0.5mm
;Filament name = Polymaker PolyLite PLA
;Filament type = PLA (Easy Printing) 1.75
;Filament weight = ~46.56g
;Extruder temp = M109 S205
;Bed temp = M190 S60

;The following lines can be uncommented for printer specific fine tuning
;More information can be found at https://marlinfw.org/meta/gcode/
;
;M92 E420                 ;Set Axis Steps-per-unit
;M301 P21.0 I1.78 D61.93  ;Set Hotend PID
;M906 E960                ;TMC Motor Current
;
M73 P0                                     ; clear GLCD progress bar
M75 					                   ; Start GLCD Print Timer
M117 Starting bottom-Body001Pad003_M2-SE             ; progress indicator message on LCD
M107 					                   ; disable fans
M420 S0                                    ; disable leveling matrix
G90 					                   ; absolute positioning
M82 					                   ; set extruder to absolute mode
G92 E0 					                   ; set extruder position to 0
M140 S60   ; start bed heating up
G28 					                   ; home all axes
G0 X0 Y187 Z156 F200 			           ; move away from endstops
M117 Wiping...      			           ; progress indicator message on LCD
M109 R180 	   ; soften filament before retraction
G1 E-15 F75 				               ; retract filament
M109 R180          ; wait for extruder to reach wiping temp
M104 S160         ; set extruder to probe temp
M106 S255                                  ; turn fan on to help drop temp
; Use M206 below to adjust nozzle wipe position (Replace "{machine_nozz1e_z_offset}" to adjust Z value)
; X ~ (+)left/(-)right, Y ~ (+)front/(-)back, Z ~ (+)down/(-)up
M206 X0 Y0 Z0
G12                                        ; wiping sequence
M206 X0 Y0 Z0                              ; reseting stock nozzle position ### CAUTION: changing this line can affect print quality ###
M107                                       ; turn off part cooling fan
G28 X0 Y0                                  ; home X and Y
M109 R160	       ; wait for extruder to reach probe temp
M117 Probing...                            ; progress indicator message on LCD
G29					                       ; start auto-leveling sequence
M420 S1                                    ; enable leveling matrix
G1 X5 Y15 Z10 F5000			               ; move up off last probe point
G4 S1					                   ; pause
M400					                   ; wait for moves to finish
M117 Heating...				               ; progress indicator message on LCD
M190 R60   ; wait for bed to reach printing temp
M109 R205 ; wait for extruder to reach initial printing temp
G1 Z2 E0 F75				               ; prime tiny bit of filament into the nozzle
M117 Printing bottom-Body001Pad003_M2-SE...		   ; progress indicator message on LCD
;Start G-Code End

G92 E0
G92 E0
G1 F600 E-1.75
;LAYER_COUNT:39
;LAYER:-6
M107
G0 F10500 X21.636 Y12.434 Z0.51
;TYPE:SUPPORT-INTERFACE
G1 F600 E0
G1 F450 X22.084 Y11.716 E0.17944
G1 X22.154 Y11.609 E0.20656
G1 X22.65 Y10.881 E0.39334
G1 X22.781 Y10.703 E0.4402
G1 X23.314 Y10.03 E0.62223
G1 X23.428 Y9.896 E0.65953
G1 X24.143 Y9.123 E0.8828
G1 X24.756 Y8.51 E1.06661
G1 X25.471 Y7.847 E1.27336
G1 X25.583 Y7.751 E1.30464
G1 X26.274 Y7.196 E1.49256
G1 X26.421 Y7.088 E1.53124
G1 X27.249 Y6.521 E1.74402
G1 X27.353 Y6.453 E1.77037
G1 X28.046 Y6.019 E1.94375
G1 X28.841 Y5.559 E2.1385
G1 X29.016 Y5.466 E2.18052
G1 X29.816 Y5.079 E2.36895
G1 X29.952 Y5.019 E2.40047
G1 X30.904 Y4.644 E2.61742
G1 X31.678 Y4.372 E2.79137
G1 X31.769 Y4.341 E2.81175
G1 X32.675 Y4.061 E3.01282
G1 X32.843 Y4.016 E3.0497
G1 X33.705 Y3.816 E3.23733
G1 X33.86 Y3.787 E3.27076
G1 X34.871 Y3.632 E3.48763
G1 X35.684 Y3.539 E3.66114
G1 X35.768 Y3.531 E3.67903
G1 X36.744 Y3.456 E3.88659
G1 X37.339 Y3.441 E4.01279
G1 X99.018 Y3.44 E17.09079
G1 X100.062 Y3.478 E17.3123
G1 X100.167 Y3.484 E17.3346
G1 X100.686 Y3.532 E17.44512
G1 X101.461 Y3.62 E17.6105
G1 X101.583 Y3.636 E17.63659
G1 X102.483 Y3.771 E17.82955
G1 X102.655 Y3.804 E17.86669
G1 X103.535 Y4.003 E18.05799
G1 X103.698 Y4.047 E18.09379
G1 X104.621 Y4.33 E18.29849
G1 X104.774 Y4.38 E18.33261
G1 X105.453 Y4.617 E18.4851
G1 X106.409 Y4.99 E18.70269
G1 X106.545 Y5.049 E18.73412
G1 X107.363 Y5.439 E18.92627
G1 X107.508 Y5.516 E18.96108
G1 X108.379 Y6.016 E19.17403
G1 X109.081 Y6.455 E19.34958
G1 X109.203 Y6.535 E19.38052
G1 X109.922 Y7.024 E19.56489
G1 X110.101 Y7.156 E19.61205
G1 X110.773 Y7.688 E19.79378
G1 X110.907 Y7.802 E19.83108
G1 X111.682 Y8.519 E20.05495
G1 X112.295 Y9.132 E20.23876
G1 X112.958 Y9.847 E20.44551
G1 X113.054 Y9.959 E20.47679
G1 X113.609 Y10.65 E20.66471
G1 X113.717 Y10.797 E20.70339
G1 X114.285 Y11.625 E20.91629
G1 X114.362 Y11.743 E20.94617
G1 X114.779 Y12.41 E21.11296
G1 X115.246 Y13.217 E21.31065
G1 X115.334 Y13.382 E21.3503
G1 X115.708 Y14.153 E21.532
G1 X115.788 Y14.334 E21.57396
G1 X116.19 Y15.355 E21.80662
G1 X116.427 Y16.033 E21.95891
G1 X116.472 Y16.171 E21.98969
G1 X116.746 Y17.056 E22.18612
G1 X116.782 Y17.186 E22.21473
G1 X116.989 Y18.079 E22.40909
G1 X117.017 Y18.228 E22.44124
G1 X117.172 Y19.246 E22.65958
G1 X117.184 Y19.339 E22.67946
G1 X117.274 Y20.15 E22.85247
G1 X117.348 Y21.12 E23.05874
G1 X117.363 Y21.716 E23.18515
G1 X117.364 Y39.645 E26.9867
G1 X117.407 Y40.323 E27.13075
G1 X117.538 Y41.007 E27.27841
G1 X117.755 Y41.667 E27.42573
G1 X118.053 Y42.296 E27.57331
G1 X118.427 Y42.881 E27.72053
G1 X118.874 Y43.415 E27.86819
G1 X119.383 Y43.888 E28.01552
G1 X119.948 Y44.294 E28.16304
G1 X120.56 Y44.624 E28.31047
G1 X121.208 Y44.875 E28.45781
G1 X121.89 Y45.044 E28.60679
G1 X122.842 Y45.129 E28.80945
G1 X138.15 Y45.13 E32.05526
G1 X139.161 Y45.167 E32.26977
G1 X139.266 Y45.173 E32.29207
G1 X139.785 Y45.221 E32.40258
G1 X140.56 Y45.309 E32.56796
G1 X140.682 Y45.325 E32.59405
G1 X141.582 Y45.46 E32.78702
G1 X141.754 Y45.493 E32.82415
G1 X142.634 Y45.692 E33.01545
G1 X142.797 Y45.736 E33.05125
G1 X143.72 Y46.019 E33.25595
G1 X143.873 Y46.069 E33.29008
G1 X144.61 Y46.327 E33.45565
G1 X145.508 Y46.679 E33.66016
G1 X145.644 Y46.738 E33.69159
G1 X146.462 Y47.128 E33.88374
G1 X146.607 Y47.205 E33.91855
G1 X147.478 Y47.705 E34.1315
G1 X148.18 Y48.144 E34.30705
G1 X148.302 Y48.224 E34.33799
G1 X149.021 Y48.713 E34.52236
G1 X149.2 Y48.845 E34.56951
G1 X149.872 Y49.377 E34.75125
G1 X150.006 Y49.491 E34.78855
G1 X150.781 Y50.208 E35.01242
G1 X151.394 Y50.821 E35.19623
G1 X152.057 Y51.536 E35.40298
G1 X152.153 Y51.648 E35.43426
G1 X152.708 Y52.339 E35.62218
G1 X152.816 Y52.486 E35.66086
G1 X153.384 Y53.314 E35.87376
G1 X153.461 Y53.432 E35.90363
G1 X153.878 Y54.099 E36.07043
G1 X154.345 Y54.906 E36.26812
G1 X154.433 Y55.071 E36.30777
G1 X154.825 Y55.881 E36.49857
G1 X154.882 Y56.009 E36.52828
G1 X155.251 Y56.945 E36.74161
G1 X155.299 Y57.075 E36.771
G1 X155.563 Y57.834 E36.94139
G1 X155.841 Y58.734 E37.14111
G1 X155.888 Y58.908 E37.17933
G1 X156.087 Y59.767 E37.36629
G1 X156.118 Y59.931 E37.40168
G1 X156.283 Y61.02 E37.63522
G1 X156.365 Y61.758 E37.79266
G1 X156.378 Y61.897 E37.82226
G1 X156.447 Y62.806 E38.01556
G1 X156.462 Y63.405 E38.1426
G1 X156.463 Y86.571 E43.05457
G1 X156.427 Y87.571 E43.26674
G1 X156.372 Y88.208 E43.40231
G1 X156.258 Y89.215 E43.61719
G1 X156.119 Y90.144 E43.81636
G1 X156.081 Y90.346 E43.85994
G1 X155.895 Y91.172 E44.03947
G1 X155.842 Y91.374 E44.08375
G1 X155.554 Y92.316 E44.29261
G1 X155.522 Y92.413 E44.31427
G1 X155.238 Y93.228 E44.49727
G1 X154.855 Y94.212 E44.72115
G1 X154.792 Y94.358 E44.75487
G1 X154.413 Y95.152 E44.94142
G1 X154.323 Y95.322 E44.98221
G1 X153.82 Y96.196 E45.19602
G1 X153.757 Y96.3 E45.2218
G1 X153.299 Y97.029 E45.40435
G1 X152.738 Y97.856 E45.61624
G1 X152.592 Y98.055 E45.66857
G1 X152.062 Y98.721 E45.84904
G1 X151.952 Y98.85 E45.88499
G1 X151.288 Y99.568 E46.09235
G1 X150.859 Y100.095 E46.23644
G1 X150.492 Y100.686 E46.38394
G1 X150.202 Y101.319 E46.53158
G1 X149.995 Y101.983 E46.67905
G1 X149.873 Y102.667 E46.82637
G1 X149.838 Y103.369 E46.9754
G1 X149.939 Y104.334 E47.18113
G1 X150.046 Y104.909 E47.30514
G1 X150.163 Y105.877 E47.51189
G1 X150.183 Y106.122 E47.56401
G1 X150.23 Y107.298 E47.81356
G1 X150.231 Y137.971 E54.31726
G1 X150.228 Y138.1 E54.34462
G1 X150.177 Y139.26 E54.59081
G1 X150.157 Y139.509 E54.64378
G1 X150.04 Y140.433 E54.84126
G1 X150.012 Y140.606 E54.87842
G1 X149.823 Y141.55 E55.08255
G1 X149.789 Y141.69 E55.1131
G1 X149.548 Y142.562 E55.30492
G1 X149.484 Y142.765 E55.35006
G1 X149.095 Y143.831 E55.59066
G1 X148.991 Y144.08 E55.64788
G1 X148.61 Y144.911 E55.84172
G1 X148.551 Y145.029 E55.86969
G1 X148.187 Y145.702 E56.03192
G1 X148.141 Y145.78 E56.05112
G1 X147.729 Y146.45 E56.21789
G1 X146.982 Y147.49 E56.4894
G1 X146.917 Y147.577 E56.51242
G1 X146.351 Y148.255 E56.69969
G1 X145.66 Y148.981 E56.91221
G1 X145.55 Y149.088 E56.94475
G1 X144.822 Y149.747 E57.15296
G1 X144.658 Y149.885 E57.1984
G1 X143.907 Y150.467 E57.39986
G1 X143.772 Y150.565 E57.43523
G1 X142.945 Y151.114 E57.6457
G1 X142.842 Y151.175 E57.67109
G1 X142.042 Y151.63 E57.86623
G1 X141.868 Y151.72 E57.90776
G1 X140.902 Y152.171 E58.13381
G1 X140.683 Y152.266 E58.18443
G1 X139.803 Y152.595 E58.38363
G1 X139.632 Y152.651 E58.42178
G1 X138.43 Y152.992 E58.68671
G1 X138.281 Y153.025 E58.71906
G1 X137.402 Y153.199 E58.90906
G1 X137.211 Y153.229 E58.95005
G1 X136.242 Y153.346 E59.15701
G1 X135.997 Y153.366 E59.20913
G1 X134.81 Y153.413 E59.46101
G1 X76.996 Y153.414 E71.7195
G1 X76.862 Y153.412 E71.74792
G1 X75.686 Y153.358 E71.99753
G1 X75.474 Y153.342 E72.04261
G1 X74.527 Y153.222 E72.24501
G1 X74.354 Y153.194 E72.28217
G1 X73.47 Y153.018 E72.47329
G1 X73.311 Y152.98 E72.50795
G1 X72.397 Y152.73 E72.70887
G1 X72.244 Y152.681 E72.74293
G1 X71.12 Y152.271 E72.99662
G1 X70.851 Y152.157 E73.05857
G1 X70.217 Y151.916 E73.20238
G1 X69.54 Y151.753 E73.35003
G1 X68.849 Y151.678 E73.4974
G1 X68.154 Y151.69 E73.64479
G1 X67.468 Y151.789 E73.79175
G1 X66.915 Y151.936 E73.91308
G1 X66.135 Y152.188 E74.08688
G1 X66.008 Y152.226 E74.11499
G1 X65.374 Y152.379 E74.25328
G1 X64.396 Y152.559 E74.46413
G1 X64.201 Y152.588 E74.50593
G1 X63.37 Y152.682 E74.68325
G1 X63.242 Y152.69 E74.71045
G1 X62.026 Y152.738 E74.96848
G1 X31.364 Y152.739 E81.46985
G1 X31.235 Y152.736 E81.49721
G1 X30.061 Y152.684 E81.74638
G1 X29.826 Y152.665 E81.79637
G1 X28.884 Y152.546 E81.99769
G1 X28.743 Y152.523 E82.02798
G1 X27.656 Y152.301 E82.26322
G1 X27.534 Y152.269 E82.28996
G1 X26.628 Y152.012 E82.48965
G1 X26.489 Y151.967 E82.52062
G1 X25.746 Y151.703 E82.68781
G1 X25.058 Y151.416 E82.84588
G1 X24.94 Y151.36 E82.87357
G1 X23.67 Y150.712 E83.17588
G1 X23.524 Y150.63 E83.21139
G1 X23.01 Y150.317 E83.33899
G1 X22.148 Y149.723 E83.56095
G1 X22.06 Y149.658 E83.58415
G1 X21.624 Y149.318 E83.70138
G1 X21.089 Y148.866 E83.84989
G1 X20.345 Y148.158 E84.06765
G1 X20.236 Y148.046 E84.10079
G1 X19.573 Y147.313 E84.31036
G1 X19.47 Y147.187 E84.34486
G1 X18.901 Y146.461 E84.54044
G1 X18.799 Y146.323 E84.57683
G1 X18.447 Y145.812 E84.7084
G1 X18.005 Y145.096 E84.88681
G1 X17.527 Y144.206 E85.10102
G1 X17.461 Y144.071 E85.13288
G1 X17.144 Y143.369 E85.2962
G1 X17.068 Y143.187 E85.33802
G1 X16.734 Y142.296 E85.53978
G1 X16.684 Y142.14 E85.57451
G1 X16.338 Y140.915 E85.84441
G1 X16.306 Y140.769 E85.87611
G1 X16.128 Y139.861 E86.0723
G1 X16.102 Y139.695 E86.10792
G1 X15.986 Y138.733 E86.31338
G1 X15.97 Y138.534 E86.35571
G1 X15.922 Y137.329 E86.61141
G1 X15.921 Y79.506 E98.87181
G1 X15.924 Y79.377 E98.89917
G1 X15.975 Y78.217 E99.14537
G1 X15.995 Y77.968 E99.19834
G1 X16.112 Y77.044 E99.39582
G1 X16.14 Y76.871 E99.43298
G1 X16.333 Y75.906 E99.64164
G1 X16.368 Y75.769 E99.67163
G1 X16.609 Y74.897 E99.86345
G1 X16.668 Y74.712 E99.90462
G1 X17.057 Y73.646 E100.14523
G1 X17.161 Y73.397 E100.20245
G1 X17.542 Y72.566 E100.39628
G1 X17.601 Y72.448 E100.42426
G1 X17.975 Y71.757 E100.59085
G1 X18.428 Y71.02 E100.77428
G1 X19.175 Y69.98 E101.04578
G1 X19.233 Y69.901 E101.06657
G1 X19.801 Y69.222 E101.25427
G1 X20.497 Y68.49 E101.46844
G1 X20.606 Y68.385 E101.50053
G1 X21.33 Y67.73 E101.70754
G1 X21.495 Y67.591 E101.75328
G1 X22.259 Y66.999 E101.95822
G1 X22.367 Y66.92 E101.98659
G1 X22.884 Y66.566 E102.11945
G1 X23.197 Y66.373 E102.19742
G1 X23.75 Y65.979 E102.34139
G1 X24.262 Y65.509 E102.48875
G1 X24.711 Y64.977 E102.63636
G1 X25.088 Y64.393 E102.78375
G1 X25.39 Y63.766 E102.93131
G1 X25.609 Y63.105 E103.07896
G1 X25.743 Y62.424 E103.22612
G1 X25.79 Y61.729 E103.37382
G1 X25.749 Y61.035 E103.52123
G1 X25.622 Y60.352 E103.66853
G1 X25.408 Y59.689 E103.81625
G1 X25.112 Y59.06 E103.96365
G1 X24.741 Y58.473 E104.11089
G1 X24.305 Y57.946 E104.25591
G1 X23.627 Y57.217 E104.467
G1 X23.511 Y57.083 E104.50458
G1 X22.959 Y56.396 E104.69144
G1 X22.853 Y56.254 E104.72902
G1 X22.278 Y55.414 E104.94486
G1 X22.224 Y55.332 E104.96567
G1 X21.718 Y54.526 E105.16746
G1 X21.235 Y53.69 E105.37218
G1 X21.15 Y53.531 E105.41041
G1 X20.769 Y52.741 E105.59638
G1 X20.704 Y52.593 E105.63065
G1 X20.335 Y51.655 E105.84437
G1 X20.295 Y51.549 E105.8684
G1 X20.008 Y50.729 E106.0526
G1 X19.704 Y49.752 E106.26956
G1 X19.651 Y49.554 E106.31302
G1 X19.462 Y48.736 E106.49103
G1 X19.424 Y48.532 E106.53503
G1 X19.276 Y47.564 E106.74266
G1 X19.26 Y47.442 E106.76875
G1 X19.162 Y46.572 E106.95439
G1 X19.153 Y46.477 E106.97462
G1 X19.08 Y45.514 E107.1794
G1 X19.066 Y44.931 E107.30305
G1 X19.065 Y21.771 E112.21374
G1 X19.101 Y20.765 E112.42718
G1 X19.149 Y20.199 E112.54762
G1 X19.248 Y19.309 E112.7375
G1 X19.398 Y18.298 E112.95421
G1 X19.418 Y18.193 E112.97687
G1 X19.625 Y17.273 E113.17682
G1 X19.661 Y17.137 E113.20665
G1 X19.993 Y16.058 E113.44602
G1 X20.267 Y15.279 E113.62111
G1 X20.622 Y14.375 E113.82704
G1 X20.669 Y14.267 E113.85202
G1 X21.073 Y13.423 E114.05042
G1 X21.143 Y13.29 E114.08228
G1 X21.636 Y12.434 E114.29173
G0 F10500 X22 Y11.85
G1 F450 X22 Y54.975 E123.43567
G0 F10500 X24 Y57.618
G1 F450 X24 Y9.277 E133.68558
G0 F10500 X26 Y7.416
G1 F450 X26 Y151.793 E164.29832
G0 F10500 X28 Y152.371
G1 F450 X28 Y6.047 E195.32389
G0 F10500 X30 Y5
G1 F450 X30 Y152.679 E226.63676
G0 F10500 X32 Y152.739
G1 F450 X32 Y4.269 E258.11736
G0 F10500 X34 Y3.765
G1 F450 X34 Y152.739 E289.70481
G0 F10500 X36 Y152.739
G1 F450 X36 Y3.513 E321.3457
G0 F10500 X38 Y3.44
G1 F450 X38 Y152.739 E353.00207
G0 F10500 X40 Y152.739
G1 F450 X40 Y3.44 E384.65844
G0 F10500 X42 Y3.44
G1 F450 X42 Y152.739 E416.31481
G0 F10500 X44 Y152.739
G1 F450 X44 Y3.44 E447.97118
G0 F10500 X46 Y3.44
G1 F450 X46 Y152.739 E479.62755
G0 F10500 X48 Y152.739
G1 F450 X48 Y3.44 E511.28392
G0 F10500 X50 Y3.44
G1 F450 X50 Y152.739 E542.94029
G0 F10500 X52 Y152.739
G1 F450 X52 Y3.44 E574.59665
G0 F10500 X54 Y3.44
G1 F450 X54 Y152.739 E606.25302
G0 F10500 X56 Y152.739
G1 F450 X56 Y3.44 E637.90939
G0 F10500 X58 Y3.44
G1 F450 X58 Y152.739 E669.56576
G0 F10500 X60 Y152.739
G1 F450 X60 Y3.44 E701.22213
G0 F10500 X62 Y3.44
G1 F450 X62 Y152.739 E732.8785
G0 F10500 X64 Y152.611
G1 F450 X64 Y3.44 E764.50773
G0 F10500 X66 Y3.44
G1 F450 X66 Y152.228 E796.05575
G0 F10500 X68 Y151.713
G1 F450 X68 Y3.44 E827.49457
G0 F10500 X70 Y3.44
G1 F450 X70 Y151.863 E858.9652
G0 F10500 X72 Y152.591
G1 F450 X72 Y3.44 E890.59018
G0 F10500 X74 Y3.44
G1 F450 X74 Y153.123 E922.32797
G0 F10500 X76 Y153.372
G1 F450 X76 Y3.44 E954.11856
G0 F10500 X78 Y3.44
G1 F450 X78 Y153.414 E985.91805
G0 F10500 X80 Y153.414
G1 F450 X80 Y3.44 E1017.71754
G0 F10500 X82 Y3.44
G1 F450 X82 Y153.414 E1049.51703
G0 F10500 X84 Y153.414
G1 F450 X84 Y3.44 E1081.31652
G0 F10500 X86 Y3.44
G1 F450 X86 Y153.414 E1113.11602
G0 F10500 X88 Y153.414
G1 F450 X88 Y3.44 E1144.91551
G0 F10500 X90 Y3.44
G1 F450 X90 Y153.414 E1176.715
G0 F10500 X92 Y153.414
G1 F450 X92 Y3.44 E1208.51449
G0 F10500 X94 Y3.44
G1 F450 X94 Y153.414 E1240.31398
G0 F10500 X96 Y153.414
G1 F450 X96 Y3.44 E1272.11347
G0 F10500 X98 Y3.44
G1 F450 X98 Y153.414 E1303.91296
G0 F10500 X100 Y153.414
G1 F450 X100 Y3.476 E1335.70482
